!!!!SEGMENT: Gom2001-Dicite_in_magni.krn
!!!id: Gom2001
!!!AGN: Motet
!!!SCT: Schmidt-Görg (1961)
!!!voices: 4
!!!COM: Nicolas Gombert
!!!OTL: Dicite in magni
**kern	**kern	**kern	**kern
*part4	*part3	*part2	*part1
*staff4	*staff3	*staff2	*staff1
*I"Bassus	*I"Tenor	*I"Altus	*I"Superius
*I'B	*I'T	*I'A	*I'S
*clefF4	*clefGv2	*clefGv2	*clefGv2
*k[b-]	*k[b-]	*k[b-]	*k[b-]
*F:	*F:	*F:	*F:
*M2/1	*M2/1	*M2/1	*M2/1
*met(C|)	*met(C|)	*met(C|)	*met(C|)
!!section: Prima pars: Dicite in magni
!!!OMD: Prima pars: Dicite in magni
=1	=1	=1	=1
0r	0r	0r	1.c
.	.	.	2c
=2	=2	=2	=2
0r	0r	0r	2c
.	.	.	2c
.	.	.	1d
=3	=3	=3	=3
0r	1.F	0r	1c
.	.	.	1r
.	2F	.	.
=4	=4	=4	=4
0r	2F	0r	1.f
.	2F	.	.
.	1G	.	.
.	.	.	2e
=5	=5	=5	=5
0r	1F	0r	2d
.	.	.	2c
.	1r	.	2B-y
.	.	.	2A
=6	=6	=6	=6
0r	1.B-y	0r	1d
.	.	.	2.c
.	2A	.	.
.	.	.	4d
=7	=7	=7	=7
0r	2.G	0r	4e
.	.	.	4f
.	.	.	1g
.	4F	.	.
.	2E	.	.
.	2D	.	2f
=8	=8	=8	=8
1.C	2G	0r	2e
.	4F	.	4d
.	4E	.	4c
.	1A	.	2e
2C	.	.	[2f
=9	=9	=9	=9
2C	1G	1.c	2f]
2C	.	.	2e
1D	1F	.	[1f
.	.	2B-y	.
=10	=10	=10	=10
1C	0r	2A	2f]
.	.	2G	2e
1r	.	2F	2d
.	.	2E	[2c
=11	=11	=11	=11
1.F	0r	1A	4c]
.	.	.	4A
.	.	.	1d
.	.	2.G	.
2E	.	.	2c#i
.	.	4A	.
=12	=12	=12	=12
2.D	1.F	2B-y	1d
.	.	2A	.
4C	.	.	.
2BB-y	.	2d	1r
2AA	2F	[2c	.
=13	=13	=13	=13
1D	2F	2c]	1.f
.	2F	2Bni	.
1C	2G	2.c	.
.	2G	.	2e
.	.	4B-y	.
=14	=14	=14	=14
0r	1F	1A	2d
.	.	.	2c
.	1r	2G	2B-y
.	.	2F	2A
=15	=15	=15	=15
0r	1.B-y	2G	1.d
.	.	2.g	.
.	.	4f	.
.	2A	[2f	2c
=16	=16	=16	=16
1.B-y	1G	2f]	2d
.	.	2e	4c
.	.	.	4B-y
.	1F	1f	1c
2A	.	.	.
=17	=17	=17	=17
2G	2E-X	1.B-y	0r
2F	2D	.	.
2E	2G	.	.
2D	[2F	2B-y	.
=18	=18	=18	=18
1G	2F]	2B-y	1r
.	2E	2B-y	.
1F	1A	1c	[1f
=19	=19	=19	=19
1r	2.G	1B-y	2f]
.	.	.	2e
.	4F	.	.
[1B-y	1G	1r	2d
.	.	.	4c
.	.	.	4B-y
=20	=20	=20	=20
2B-]	1F	1.f	1c
2A	.	.	.
1G	[1B-y	.	1r
.	.	2e	.
=21	=21	=21	=21
1r	2B-]	2d	1.f
.	2A	2c	.
[1B-y	1G	2d	.
.	.	4c	2e
.	.	4B-y	.
=22	=22	=22	=22
2B-]	1F	1f	2d
2A	.	.	2c
2.G	2.B-y	2e	2g
.	.	2d	[2g
4F	4A	.	.
=23	=23	=23	=23
2E	2G	2c	2g]
2D	2A	1d	2.f
1G	1B-y	.	.
.	.	.	8eL
.	.	.	8dJ
.	.	4c	2e
.	.	4B-y	.
=24	=24	=24	=24
2.F	0A	1c	4f
.	.	.	4c
.	.	.	1f
4E	.	.	.
2D	.	2r	.
2C	.	2c	2e
=25	=25	=25	=25
2.BB-y	1r	1d	1f
4AA	.	.	.
1D	2r	[1f	1r
.	2F	.	.
=26	=26	=26	=26
1C	1G	2f]	1c
.	.	2e	.
1r	[1B-y	1f	1d
=27	=27	=27	=27
0r	2B-]	2d	1f
.	2A	2c	.
.	1B-y	2d	1r
.	.	[2f	.
=28	=28	=28	=28
1C	1G	2f]	0r
.	.	2e	.
2D	1F	2f	.
[2F	.	2d	.
=29	=29	=29	=29
2F]	2G	2c	1r
2E	1B-y	2G	.
1F	.	2A	1c
.	[2A	[2c	.
=30	=30	=30	=30
1D	4A]	2c]	2d
.	4F	.	.
.	2B-y	2B-y	1f
1C	1G	1c	.
.	.	.	2e
=31	=31	=31	=31
2D	1F	1A	2f
1F	.	.	2d
.	1r	1G	2c
2E	.	.	4r
.	.	.	4G
=32	=32	=32	=32
1F	0r	1c	2A
.	.	.	1c
1D	.	2d	.
.	.	[2f	2Bni
=33	=33	=33	=33
1C	1G	2f]	1.c
.	.	2e	.
1r	2A	4f	.
.	.	4e	.
.	[2c	4e	2A
.	.	8dL	.
.	.	8cJ	.
=34	=34	=34	=34
2r	2c]	1d	1G
2G	2Bni	.	.
2A	2c	1c	2r
[2c	2A	.	2c
=35	=35	=35	=35
2c]	2G	0r	2d
2B-y	2D	.	1f
1c	2.A	.	.
.	.	.	2e
.	4B-y	.	.
=36	=36	=36	=36
1A	4c	1r	4f
.	4A	.	4e
.	2.c	.	4e
.	.	.	8dL
.	.	.	8cJ
1G	.	2r	1d
.	8BniL	.	.
.	8AJ	.	.
.	2Bni	[2G	.
=37	=37	=37	=37
0C	[0c	2G]	0e
.	.	2G	.
.	.	2G	.
.	.	2E	.
=38	=38	=38	=38
2r	0c]	2F	0r
1C	.	2G	.
.	.	2A	.
2C	.	2G	.
=39	=39	=39	=39
2C	0r	1c	1r
2AA	.	.	.
2BB-y	.	2B-y	2r
2C	.	2A	2c
=40	=40	=40	=40
1D	0r	2A	1.f
.	.	4G	.
.	.	4F	.
1C	.	1G	.
.	.	.	2e
=41	=41	=41	=41
2.F	0r	1A	2d
.	.	.	1c
4F	.	.	.
2E	.	2G	.
2D	.	2F	2B-y
=42	=42	=42	=42
1F	0r	1A	2c
.	.	.	2.d
2E	.	2G	.
.	.	.	4c
2D	.	2F	[2f
=43	=43	=43	=43
1C	1.c	1G	2f]
.	.	.	2e
[1F	.	[1A	1f
.	2c	.	.
=44	=44	=44	=44
1F]	2c	1A]	2r
.	2A	.	2d
2.E-X	2B-y	1r	2g
.	2c	.	2g
4D	.	.	.
=45	=45	=45	=45
2BB-y	2d	0r	2f
1C	2c	.	2e
.	2f	.	1d
2BBni	2f	.	.
=46	=46	=46	=46
0C	1.e	2r	2.c
.	.	2G	.
.	.	.	4B-y
.	.	2c	1G
.	4d	2c	.
.	4c	.	.
=47	=47	=47	=47
2r	2d	2B-y	2r
2AA	1c	1A	2c
2D	.	.	2f
2D	2B-y	4G	2f
.	.	4F	.
=48	=48	=48	=48
2C	2.c	1G	2.e
2C	.	.	.
.	4B-y	.	4d
2F	4A	1r	2c
.	4G	.	.
4E	[2B-y	.	[2d
4D	.	.	.
=49	=49	=49	=49
2E	2B-]	0r	4d]
.	.	.	4c
2F	1A	.	2A
2D	.	.	2B-y
2E	2G	.	[2c
=50	=50	=50	=50
1F	4A	1.c	4c]
.	4G	.	4B-y
.	4F	.	4A
.	4E	.	4G
1r	1F	.	[1A
.	.	2d	.
=51	=51	=51	=51
1.F	0r	2.c	1A]
.	.	4B-y	.
.	.	2A	1r
2G	.	2B-y	.
=52	=52	=52	=52
2.F	0r	2c	0r
.	.	2A	.
4E	.	.	.
2D	.	2B-y	.
2E	.	2c	.
=53	=53	=53	=53
2.F	1r	2A	0r
.	.	4G	.
4D	.	4F	.
2E	[1c	2G	.
2F	.	2A	.
=54	=54	=54	=54
4E	2c]	2G	0r
4C	.	.	.
2.F	2d	1A	.
.	2.c	.	.
4E	.	.	.
2C	.	2G	.
.	4B-y	.	.
=55	=55	=55	=55
2.D	2A	2.F	1r
.	2B-y	.	.
4BB-y	.	4G	.
1F	2c	1A	[1f
.	2A	.	.
=56	=56	=56	=56
0r	2.B-y	0r	2f]
.	.	.	2g
.	4c	.	.
.	2A	.	2.f
.	[2B-y	.	.
.	.	.	4e
=57	=57	=57	=57
0r	2B-]	0r	2d
.	4A	.	2e
.	4G	.	.
.	2A	.	2f
.	2B-y	.	2d
=58	=58	=58	=58
1r	2G	0r	2e
.	2A	.	2f
[1G	2.B-y	.	2.d
.	4A	.	4e
=59	=59	=59	=59
2G]	2B-y	0r	2d
2A	2c	.	1c
2.G	1d	.	.
.	.	.	2Bni
4F	.	.	.
=60	=60	=60	=60
2E	2G	1r	2.c
2F	2A	.	.
.	.	.	4d
1G	4B-y	2r	2e
.	2c	.	.
.	.	[2G	2d
.	4Bni	.	.
=61	=61	=61	=61
1.C	4c	2G]	1e
.	4Bni	.	.
.	4c	2A	.
.	4d	.	.
.	2e	2G	1r
2D	[2A	2F	.
=62	=62	=62	=62
2C	4A]	2E	1c
.	4G	.	.
2AA	2A	1F	.
2BB-y	1G	.	2d
2C	.	2E	[2c
=63	=63	=63	=63
1D	0r	1F	2c]
.	.	.	2B-y
1C	.	1E	2A
.	.	.	2G
=64	=64	=64	=64
0r	1.F	1.A	1c
.	.	.	2.d
.	2G	2B-y	.
.	.	.	4e
=65	=65	=65	=65
0r	2.F	2.A	2d
.	.	.	2c
.	4E	4G	.
.	2D	2F	2B-y
.	2E	4G	2c
.	.	4A	.
=66	=66	=66	=66
1.BB-y	1F	4B-y	2d
.	.	4c	.
.	.	2d	2.f
.	1r	2.G	.
.	.	.	8eL
.	.	.	8dJ
2C	.	.	2e
.	.	4A	.
=67	=67	=67	=67
2.BB-y	2r	4B-y	1d
.	.	4c	.
.	1B-y	1d	.
4AA	.	.	.
2GG	.	.	1r
2AA	2A	2c	.
=68	=68	=68	=68
1BB-y	2G	1d	1r
.	2F	.	.
2AA	2c	1r	2r
[2F	[2A	.	2c
=69	=69	=69	=69
2F]	4A]	0r	2c
.	8GL	.	.
.	8FJ	.	.
2E	2G	.	2c
2D	1A	.	2f
2C	.	.	2e
=70	=70	=70	=70
1.G	0r	1.B-y	2.d
.	.	.	8cL
.	.	.	8B-yJ
.	.	.	1c
2F	.	2A	.
=71	=71	=71	=71
2E-X	1.B-y	2G	0r
2D	.	2F	.
1F	.	[1c	.
.	2A	.	.
=72	=72	=72	=72
2E	2G	2c]	2r
2D	2F	2B-y	1f
1C	1c	2A	.
.	.	2G	2e
=73	=73	=73	=73
2r	1A	1F	2d
1F	.	.	2c
.	2.B-y	1r	1g
2E	.	.	.
.	8AL	.	.
.	8GJ	.	.
=74	=74	=74	=74
2D	1A	2r	2f
2C	.	1c	2e
1G	1r	.	2.d
.	.	2B-y	.
.	.	.	4e
=75	=75	=75	=75
2F	2r	2A	2f
2E	1B-y	2G	2g
1D	.	1d	1f
.	2A	.	.
=76	=76	=76	=76
2E	2G	2c	2r
2D	2F	2B-y	1f
2F	1c	2A	.
2C	.	2G	2e
=77	=77	=77	=77
2D	2B-y	1F	2d
1F	2A	.	2c
.	1G	[1B-y	1g
2E	.	.	.
=78	=78	=78	=78
1F	1c	2B-]	1f
.	.	2A	.
1r	2B-y	2G	2e
.	[2A	2F	4d
.	.	.	4c
=79	=79	=79	=79
1r	2A]	1c	2e
.	2G	.	1f
2r	2.G	1B-y	.
[2G	.	.	2e
.	4F	.	.
=80	=80	=80	=80
2G]	1D	2.A	4d
.	.	.	4e
2F	.	.	4f
.	.	4B-y	4d
2E	1r	2c	2e
2D	.	[2d	[2f
=81	=81	=81	=81
1A	1r	4d]	4f]
.	.	4c	4e
.	.	1c	2c
1G	2r	.	1d
.	2G	2Bni	.
=82	=82	=82	=82
2C	2G	[0cl	2.e
2C	2G	.	.
.	.	.	4d
1F	1A	.	2c
.	.	.	[2f
=83	=83	=83	=83
[0Cl	2.G	0c_	2f]
.	.	.	4e
.	4F	.	4d
.	2G	.	2e
.	[2A	.	[2f
=84	=84	=84	=84
0C_	2A]	0c_	2f]
.	4G	.	4e
.	4F	.	4d
.	2A	.	1e
.	2G	.	.
=	=	=	=
00C]	00G	00c]	00e
=||	=||	=||	=||
*M2/1	*M2/1	*M2/1	*M2/1
*met(C|)	*met(C|)	*met(C|)	*met(C|)
!!section: Secunda pars: Laeta dies
!!!OMD: Secunda pars: Laeta dies
0r	0r	0c	0r
=85	=85	=85	=85
0r	0r	1A	0r
.	.	[1B-y	.
=86	=86	=86	=86
0r	0r	2B-]	0r
.	.	2A	.
.	.	2B-y	.
.	.	2c	.
=87	=87	=87	=87
0F	0r	1A	0r
.	.	2r	.
.	.	2F	.
=88	=88	=88	=88
1D	0r	2F	0r
.	.	2F	.
[1E	.	2G	.
.	.	2G	.
=89	=89	=89	=89
2E]	0r	1F	0r
2D	.	.	.
2E	.	2G	.
2F	.	2A	.
=90	=90	=90	=90
2.E-X	0r	2B-y	0g
.	.	4c	.
4D	.	4d	.
2C	.	4e	.
.	.	4f	.
2C	.	[2e	.
=91	=91	=91	=91
2C	0r	4e]	1e
.	.	4d	.
2C	.	1c	.
2D	.	.	[1f
2D	.	2Bni	.
=92	=92	=92	=92
2C	0r	2.c	2f]
1c	.	.	2e
.	.	4e	.
.	.	1d	2f
2B-y	.	.	2g
=93	=93	=93	=93
4c	0c	0A	1e
4B-y	.	.	.
4A	.	.	.
4G	.	.	.
1F	.	.	2r
.	.	.	2c
=94	=94	=94	=94
1r	1.A	0r	2c
.	.	.	2c
1F	.	.	2d
.	2B-y	.	2d
=95	=95	=95	=95
2F	2B-y	0r	2c
2F	2A	.	1f
2G	2.B-y	.	.
2G	.	.	2e
.	4c	.	.
=96	=96	=96	=96
2.F	1A	2r	4d
.	.	.	4c
.	.	2c	2f
4E	.	.	.
1C	1G	2c	2e
.	.	2c	4d
.	.	.	4c
=97	=97	=97	=97
1r	2G	2d	1B-y
.	2G	2d	.
[1C	2A	2c	1r
.	2A	[2f	.
=98	=98	=98	=98
1C]	1G	4f]	1c
.	.	8eL	.
.	.	8dJ	.
.	.	4e	.
.	.	4d	.
1AA	1r	4c	2c
.	.	4B-y	.
.	.	4A	2c
.	.	4G	.
=99	=99	=99	=99
1.BB-y	2r	1F	2d
.	2F	.	2d
.	2F	1r	2c
2AA	2F	.	[2f
=100	=100	=100	=100
2BB-y	2G	2r	2f]
2C	2G	2c	2e
1AA	2F	2c	2c
.	[2c	2c	[2f
=101	=101	=101	=101
1r	2c]	2d	2f]
.	2B-y	2d	4e
.	.	.	4d
1F	2.A	2c	2f
.	.	2A	[2c
.	4B-y	.	.
=102	=102	=102	=102
2F	2c	2A	2c]
2F	1d	2A	2.f
2G	.	2.B-y	.
.	.	.	8eL
.	.	.	8dJ
2G	4c	.	2e
.	4B-y	4B-y	.
=103	=103	=103	=103
1F	2.c	2.A	4f
.	.	.	4e
.	.	.	4c
.	8B-yL	4B-y	4d
.	8AJ	.	.
2E	2G	2c	2e
2D	[2B-y	2d	[2f
=104	=104	=104	=104
1F	2B-]	0c	4f]
.	.	.	4c
.	2A	.	1f
1C	1G	.	.
.	.	.	2e
=105	=105	=105	=105
0F	1.A	2r	2.f
.	.	2c	.
.	.	.	4e
.	.	[1f	1c
.	2F	.	.
=106	=106	=106	=106
0r	1.B-y	2f]	0r
.	.	2e	.
.	.	2d	.
.	2A	2c	.
=107	=107	=107	=107
0r	2G	1B-y	0r
.	2F	.	.
.	2E	2.c	.
.	2F	.	.
.	.	4c	.
=108	=108	=108	=108
2.F	4A	2c	1r
.	4B-y	.	.
.	2c	2A	.
4F	.	.	.
2BB-y	2d	2B-y	2.f
2C	2c	[2A	.
.	.	.	4f
=109	=109	=109	=109
2D	2c	2A]	2f
2D	2B-y	4G	2d
.	.	4F	.
1C	2c	[1G	2.e
.	2G	.	.
.	.	.	4d
=110	=110	=110	=110
1C	1.c	1G]	4e
.	.	.	4d
.	.	.	4c
.	.	.	4B-y
[1F	.	2r	2A
.	2B-y	2F	2d
=111	=111	=111	=111
2F]	2A	1.f	2c
2E	2G	.	2c
2D	2F	.	[1f
2C	2F	2e	.
=112	=112	=112	=112
1BB-y	1.B-y	2d	2f]
.	.	2c	2e
1r	.	2B-y	2d
.	2A	[2e-i	2c
=113	=113	=113	=113
0r	2G	2e-]	2B-y
.	2F	1d	2A
.	1E	.	1G
.	.	2c#i	.
=114	=114	=114	=114
2.G	1r	2.d	2.B-y
4G	.	4d	4B-y
2G	2.G	2d	2B-y
2E	.	2e	2c
.	4G	.	.
=115	=115	=115	=115
2F	2A	2c	2c
2D	2F	2d	2B-y
1C	1G	2.e	1c
.	.	4d	.
=116	=116	=116	=116
2.F	1A	2c	2.c
.	.	1f	.
4F	.	.	4c
2BB-y	2G	.	2d
2C	[2A	2e	2c
=117	=117	=117	=117
1D	4A]	2f	2A
.	4G	.	.
.	1F	2F	2B-y
1C	.	2.G	4c
.	.	.	4d
.	2E	.	4e
.	.	4A	4c
=118	=118	=118	=118
0BB-y	1F	1B-y	0d
.	1r	2r	.
.	.	[2G	.
=119	=119	=119	=119
1.C	1.E	2G]	2r
.	.	2G	1c
.	.	[1G	.
2C	2E	.	2c
=120	=120	=120	=120
2C	1E	2G]	1c
2AA	.	1A	.
[1D	[1F	.	1A
.	.	2F	.
=121	=121	=121	=121
2D]	2F]	1.F	1.d
2BB-y	2D	.	.
2BB-y	1D	.	.
2GG	.	[2G	2d
=122	=122	=122	=122
1C	1E	2G]	1.c
.	.	2E	.
1AA	1C	1E	.
.	.	.	2A
=123	=123	=123	=123
2r	1c	0r	1A
1F	.	.	.
.	2F	.	1r
2BB-y	2G	.	.
=124	=124	=124	=124
2C	2A	1r	2r
2D	1B-y	.	2f
1E-X	.	2r	2B-y
.	4A	[2c	2c
.	4G	.	.
=125	=125	=125	=125
1D	2A	2c]	1d
.	2B-y	2F	.
1C	1c	2G	1e-i
.	.	2A	.
=126	=126	=126	=126
2r	2.G	2.B-y	1d
1G	.	.	.
.	4A	4A	.
.	2B-y	2G	2g
2C	2c	[2A	4f
.	.	.	4e
=127	=127	=127	=127
2D	1B-y	2A]	2f
2E	.	2G	2.e
2F	2A	1A	.
.	.	.	8dL
.	.	.	8cJ
4E	4G	.	[2d
4D	4F	.	.
=128	=128	=128	=128
2E	2G	2r	4d]
.	.	.	4c
2F	1A	1f	1c
1D	.	.	.
.	4G	2f	2Bni
.	4F	.	.
=129	=129	=129	=129
1C	1G	2e	2.c
.	.	2c	.
.	.	.	4B-y
2r	1r	2e	2G
[2F	.	2d	[2A
=130	=130	=130	=130
2F]	2r	2.c	2A]
2F	1c	.	4G
.	.	4d	4F
2E	.	1e	2G
2C	2c	.	[2g
=131	=131	=131	=131
2E-i	2B-y	0r	2g]
2D	2F	.	2f
2.C	2A	.	2e
.	[2G	.	2c
4BB-y	.	.	.
=132	=132	=132	=132
2C	2G]	1r	2e
2D	2F	.	2f
1C	2A	[1c	4e
.	.	.	4d
.	[2G	.	4c
.	.	.	4B-y
=133	=133	=133	=133
0r	2G]	2c]	1A
.	2F	2c	.
.	1G	2.B-y	[1d
.	.	4G	.
=134	=134	=134	=134
1r	1F	2A	2d]
.	.	2A	2c
2r	2.d	1G	1B-y
[2G	.	.	.
.	4c	.	.
=135	=135	=135	=135
2G]	2B-y	1r	4G
.	.	.	4B-y
2F	2A	.	2c
2E	2B-y	[1g	1G
2C	2c	.	.
=136	=136	=136	=136
2E	2G	2g]	2.c
2F	2r	2f	.
.	.	.	8B-yL
.	.	.	8AJ
[1C	[1c	2e	2G
.	.	2c	2A
=137	=137	=137	=137
2C]	2c]	2e	2G
4D	2B-y	2f	1F
4E	.	.	.
4F	2A	1c	.
4G	.	.	.
[2A	2F	.	[2c
=138	=138	=138	=138
2A]	2A	0r	2c]
2.G	2B-y	.	2B-y
.	4F	.	2A
4F	4G	.	.
[2F	4A	.	2F
.	4B-y	.	.
=139	=139	=139	=139
2F]	2c	2r	2A
2E	2G	1g	2B-y
1D	2.A	.	2.F
.	.	2f	.
.	4B-y	.	4G
=140	=140	=140	=140
1C	4c	2e	4A
.	4d	.	4F
.	2e	2c	1c
1r	2c	2e	.
.	[2d	[2f	2B-y
=141	=141	=141	=141
0r	4d]	4f]	1.A
.	4c	4e	.
.	1c	2c	.
.	.	2.d	.
.	2B-y	.	2G
.	.	4e	.
=	=	=	=
*M3/1	*M3/1	*M3/1	*M3/1
*met(3)	*met(3)	*met(3)	*met(3)
1.F	2c	0.f	1A
.	2B-y	.	.
.	2A	.	1.c
2F	2G	.	.
1F	1A	.	.
.	.	.	2c
=142	=142	=142	=142
1C	0G	1%3r	1c
1.E	.	.	1G
.	1r	.	[1B-y
2D	.	.	.
=143	=143	=143	=143
0.D	1.d	1.f	2B-]
.	.	.	2A
.	.	.	0A
.	2d	2f	.
.	1d	1f	.
=144	=144	=144	=144
1%3r	1A	1c	1%3r
.	1.c	1.e	.
.	2B-y	2d	.
=145	=145	=145	=145
1.G	1.B-y	0d	1r
.	.	.	1.d
2G	2A	.	.
1G	1B-y	1r	.
.	.	.	2d
=146	=146	=146	=146
1D	1.A	1%3r	1d
1.F	.	.	1A
.	2G	.	.
.	1A	.	[1c
2E-X	.	.	.
=147	=147	=147	=147
0E-i	1.G	1.g	2c]
.	.	.	2B-y
.	.	.	0B-y
.	2F	2g	.
1r	2G	1g	.
.	2A	.	.
=148	=148	=148	=148
1.D	2B-y	1d	1r
.	2A	.	.
.	1F	1.f	1.A
2D	.	.	.
1D	[1A	.	.
.	.	2e	2B-y
=149	=149	=149	=149
1AA	2A]	1.e	1.c
.	2A	.	.
1.C	1A	.	.
.	.	4d	2B-y
.	.	4c	.
.	1E	1c	2G
2BB-y	.	.	2A
=150	=150	=150	=150
2GG	1.G	1d	1.B-y
2AA	.	.	.
0BB-y	.	2B-y	.
.	2F	2c	2A
.	1D	2d	2F
.	.	2B-y	2G
=	=	=	=
*M2/1	*M2/1	*M2/1	*M2/1
*met(C|)	*met(C|)	*met(C|)	*met(C|)
0AA	0E	4c	1A
.	.	4B-y	.
.	.	4A	.
.	.	4G	.
.	.	[1A	2r
.	.	.	[2c
=151	=151	=151	=151
0r	2r	1A]	2c]
.	1F	.	2d
.	.	1r	2f
.	2G	.	2e
=152	=152	=152	=152
0r	2B-y	0r	2d
.	2A	.	2c
.	2G	.	2e
.	2F	.	2d
=153	=153	=153	=153
1C	2A	1r	2c
.	2G	.	2e
2D	2F	1F	2d
2F	2A	.	[2c
=154	=154	=154	=154
2E	2G	2G	2c]
2D	1F	2B-y	2B-y
2C	.	2A	2c
2E	2E	2G	4r
.	.	.	4c
=155	=155	=155	=155
1D	2A	2F	2d
.	4G	1A	1f
.	4F	.	.
2C	1c	.	.
2C	.	2G	2e
=156	=156	=156	=156
2D	2r	1F	2d
1F	2F	.	2c
.	2G	1r	2.B-y
2E	[2B-y	.	.
.	.	.	8AL
.	.	.	8GJ
=157	=157	=157	=157
2D	2B-]	2r	2d
2C	2A	1c	2.e
2E	2G	.	.
.	.	.	4c
2D	2F	2B-y	[2f
=158	=158	=158	=158
2.C	2A	4c	2f]
.	.	4A	.
.	1G	2.c	2e
4E	.	.	.
1D	.	.	2f
.	.	8BniL	.
.	.	8AJ	.
.	2F	2Bni	4e
.	.	.	4d
=159	=159	=159	=159
0C	0G	1c	1.e
.	.	2r	.
.	.	[2c	4d
.	.	.	4c
=160	=160	=160	=160
0r	2r	2c]	1e
.	1G	2G	.
.	.	2.B-y	1d
.	2D	.	.
.	.	4c	.
=161	=161	=161	=161
1r	2F	1d	0r
.	2G	.	.
2r	1A	2c	.
[2C	.	[2e-i	.
=162	=162	=162	=162
2C]	2G	2e-]	1r
2GG	1G	2B-y	.
2.BB-y	.	4d	[1d
.	.	4e	.
.	2D	2f	.
4C	.	.	.
=163	=163	=163	=163
1D	2.F	4d	2d]
.	.	4e	.
.	.	2f	2A
.	4G	.	.
[1C	1A	2e	2.c
.	.	[2c	.
.	.	.	4d
=164	=164	=164	=164
1C]	0G	2c]	1e
.	.	2G	.
2r	.	2.B-y	1d
[2G	.	.	.
.	.	4c	.
=165	=165	=165	=165
2G]	2r	2d	4d
.	.	.	4e
2D	2.A	1d	4f
.	.	.	4g
2.F	.	.	2a
.	4B-y	.	.
.	[2c	2A	4g
4G	.	.	4f
=166	=166	=166	=166
1A	2c]	2.c	2e
.	4B-y	.	2f
.	4A	4d	.
[1G	2B-y	1e	[1g
.	[2c	.	.
=167	=167	=167	=167
1G]	2c]	1d	1g]
.	2Bni	.	.
2.A	1c	2.c	2.e
4A	.	4c	4e
=168	=168	=168	=168
2A	0r	2c	2f
2B-y	.	2d	2g
2A	.	2c	2f
2G	.	2B-y	2e
=169	=169	=169	=169
1F	2.A	1c	0f
.	4A	.	.
2.D	2A	1d	.
.	2B-y	.	.
4D	.	.	.
=170	=170	=170	=170
2D	2A	0r	1r
2E-i	2G	.	.
2D	2.F	.	2.f
2C	.	.	.
.	4E	.	4f
=171	=171	=171	=171
1BB-y	1D	2.B-y	2f
.	.	.	2g
.	.	4B-y	.
1r	1r	2B-y	2f
.	.	2c	2e
=172	=172	=172	=172
0r	0r	2B-y	4d
.	.	.	4c
.	.	2A	2.f
.	.	1G	.
.	.	.	8eL
.	.	.	8dJ
.	.	.	2e
=173	=173	=173	=173
2.F	2.A	2.c	1f
4F	4A	4c	.
2F	2A	2c	2r
2BB-y	2B-y	2d	[2f
=174	=174	=174	=174
2C	2A	2.c	2f]
2C	2G	.	2e
.	.	4B-y	.
1D	1F	1A	2.d
.	.	.	4c
=175	=175	=175	=175
2.E	2.G	0r	2B-y
.	.	.	2B-y
4E	4G	.	.
2E	2G	.	2.c
2F	2A	.	.
.	.	.	4c
=176	=176	=176	=176
2E	2G	1r	2c
2D	2F	.	2Bni
[1C	[1G	2.e	[1c
.	.	4e	.
=177	=177	=177	=177
2C]	2G]	2e	2c]
2BB-y	2B-y	2f	2d
2C	2G	2e	2c
2D	2F	2d	2B-y
=178	=178	=178	=178
1AA	1E	1c	1A
2.AA	2.A	2.e	2.c
4BB-y	4A	4e	4c
=179	=179	=179	=179
2C	2G	2e	2c
2D	2F	2f	2B-y
2C	2A	2e	2c
2BB-y	2B-y	2d	[2f
=180	=180	=180	=180
1C	1G	0c	2f]
.	.	.	2e
1r	1F	.	1f
=181	=181	=181	=181
2.C	2.G	2.c	2.e
4D	4G	4c	4e
2E	2c	2G	2e
2F	2c	2A	2c
=182	=182	=182	=182
2E	2c	2G	2e
2D	2B-y	2F	2.f
1C	1c	1G	.
.	.	.	8eL
.	.	.	8dJ
.	.	.	4e
.	.	.	8dL
.	.	.	8eJ
=183	=183	=183	=183
2.F	2.c	2.A	[0fl
4F	4c	4A	.
2F	2c	2A	.
2BB-y	[2d	[2B-y	.
=184	=184	=184	=184
1F	2d]	2B-]	0f_
.	2c	2A	.
1BB-y	1B-y	1d	.
=185	=185	=185	=185
00Fl	00Al	00cl	00f]
==	==	==	==
*-	*-	*-	*-
!!!system-decoration: [*]
!!!RDF**kern: i = editorial accidental
!!!RDF**kern: l = terminal long
!!!ENC: Benjamin Ory
!!!END: 2022/2/13
!!!EED: Benjamin Ory
!!!EEV: 2022/02/13
!!!YEC: Copyright 2022 Benjamin Ory, All Rights Reserved
!!!ONB: Translated from MusicXML on 2022/02/13
